icons/evolvere-blue-folders-flat-vivid-dark-fallback/apps/64/superkaramba.svg

<svg xmlns="http://www.w3.org/2000/svg" viewBox="0 0 64 64"><g color="#000"><path d="m0 4v30 28l2 2h30 30l2-2v-28-30h-32-32" fill="#eea82f"/><path d="m2 0l-2 1v3h32 32v-3l-2-1h-30-30" fill="#ffda6e"/></g><path d="m0 3v3l2-2" fill="#ffe494"/><path d="m64 6l-2-2 2-1z" fill="#f3bf52"/><g transform="matrix(.70711.70711-.70711.70711 33.414-12.669)" color="#000"><path d="m44.19 29.25c-4.698.021-9.01 1.577-12.188 4.75-7.107 7.107-6.05 19.95 2 30h28l2-2v-24.25c-5.987-5.588-13.273-8.53-19.813-8.5" transform="matrix(.70711-.70711.70711.70711-14.669 32.586)" fill="#2b0000" fill-opacity=".159"/><g transform="matrix(0-1 1 0-2 66)"><circle r="20" cy="34" cx="32" fill="#1188f1"/><path transform="matrix(.52373 0 0 .34244 15.196 11.988)" d="M51.53041 32.445362A19.445436 19.445436 0 0 1 32.08497 51.890799 19.445436 19.445436 0 0 1 12.639532 32.445362 19.445436 19.445436 0 0 1 32.08497 12.999926 19.445436 19.445436 0 0 1 51.53041 32.445362" fill="#4dc0ff"/><path d="M51.53041 32.445362A19.445436 19.445436 0 0 1 32.08497 51.890799 19.445436 19.445436 0 0 1 12.639532 32.445362 19.445436 19.445436 0 0 1 32.08497 12.999926 19.445436 19.445436 0 0 1 51.53041 32.445362" transform="matrix(.45856 0 0-.29983 17.287 55.797)" fill="#f5cd88" fill-opacity=".217"/></g></g></svg>

<?xml version="1.0" encoding="UTF-8" standalone="no"?>
<!-- Created with Inkscape (http://www.inkscape.org/) -->

<svg
   xmlns:dc="http://purl.org/dc/elements/1.1/"
   xmlns:cc="http://creativecommons.org/ns#"
   xmlns:rdf="http://www.w3.org/1999/02/22-rdf-syntax-ns#"
   xmlns:svg="http://www.w3.org/2000/svg"
   xmlns="http://www.w3.org/2000/svg"
   xmlns:sodipodi="http://sodipodi.sourceforge.net/DTD/sodipodi-0.dtd"
   xmlns:inkscape="http://www.inkscape.org/namespaces/inkscape"
   width="64"
   height="64"
   id="svg13094"
   version="1.1"
   inkscape:version="0.91+devel r"
   sodipodi:docname="superkaramba.svg">
  <sodipodi:namedview
     id="base"
     pagecolor="#ffffff"
     bordercolor="#666666"
     borderopacity="1.0"
     inkscape:pageopacity="0"
     inkscape:pageshadow="2"
     inkscape:zoom="11.313709"
     inkscape:cx="28.412377"
     inkscape:cy="29.910264"
     inkscape:document-units="px"
     inkscape:current-layer="g3908"
     showgrid="true"
     inkscape:snap-bbox="true"
     inkscape:bbox-paths="true"
     inkscape:bbox-nodes="true"
     inkscape:snap-bbox-edge-midpoints="true"
     inkscape:snap-bbox-midpoints="true"
     inkscape:object-paths="true"
     inkscape:snap-intersection-paths="true"
     inkscape:object-nodes="true"
     inkscape:snap-smooth-nodes="true"
     inkscape:snap-midpoints="true"
     inkscape:snap-object-midpoints="true"
     inkscape:snap-center="true"
     showguides="true"
     inkscape:guide-bbox="true"
     inkscape:window-width="1920"
     inkscape:window-height="1023"
     inkscape:window-x="-10"
     inkscape:window-y="35"
     inkscape:window-maximized="1"
     inkscape:snap-global="true"
     fit-margin-top="0"
     fit-margin-left="0"
     fit-margin-right="0"
     fit-margin-bottom="0"
     showborder="true"
     inkscape:showpageshadow="false"
     inkscape:snap-page="true">
    <inkscape:grid
       type="xygrid"
       id="grid3075"
       empspacing="5"
       visible="true"
       enabled="true"
       snapvisiblegridlinesonly="true"
       originx="1.6362304e-08px"
       originy="18px" />
  </sodipodi:namedview>
  <defs
     id="defs13096" />
  <metadata
     id="metadata13099">
    <rdf:RDF>
      <cc:Work
         rdf:about="">
        <dc:format>image/svg+xml</dc:format>
        <dc:type
           rdf:resource="http://purl.org/dc/dcmitype/StillImage" />
        <dc:title></dc:title>
      </cc:Work>
    </rdf:RDF>
  </metadata>
  <path
     style="color:#000000;fill:#eea82f;fill-opacity:1;fill-rule:nonzero;stroke:none;stroke-width:2.28571415;marker:none;visibility:visible;display:inline;overflow:visible;enable-background:accumulate"
     d="M 0 4 L 0 34 L 0 62 L 2 64 L 32 64 L 62 64 L 64 62 L 64 34 L 64 4 L 32 4 L 0 4 z "
     id="path6498" />
  <path
     style="color:#000000;fill:#ffda6e;fill-opacity:1;fill-rule:nonzero;stroke:none;marker:none;visibility:visible;display:inline;overflow:visible;enable-background:accumulate;stroke-width:2.28571415000000000"
     d="M 2 0 L 0 1 L 0 4 L 32 4 L 64 4 L 64 1 L 62 0 L 32 0 L 2 0 z "
     id="path6502" />
  <path
     style="fill:#ffe494;fill-opacity:1;fill-rule:nonzero"
     d="M 0,3 0,6 2,4 Z"
     id="path4298"
     inkscape:connector-curvature="0"
     sodipodi:nodetypes="cccc" />
  <path
     d="M 64,6 62,4 64,3 z"
     id="path3028"
     style="fill:#f3bf52;fill-opacity:1"
     inkscape:connector-curvature="0" />
  <g
     id="g3043"
     inkscape:export-filename="folder.png"
     inkscape:export-xdpi="90"
     inkscape:export-ydpi="90"
     transform="translate(-0.62500009,0.082283)" />
  <g
     id="scalable"
     transform="matrix(1.0385892,0,0,1.0385892,1214.7222,1878.8121)"
     inkscape:label="#g3701"
     style="fill:#ffffff" />
  <g
     id="g3929"
     inkscape:transform-center-x="-11.107855"
     transform="matrix(0.70710678,0.70710678,-0.70710678,0.70710678,33.414215,-12.669047)"
     inkscape:transform-center-y="11.107854">
    <path
       style="color:#000000;fill:#2b0000;fill-opacity:0.15921289;fill-rule:nonzero;stroke:none;stroke-width:2.28571415;marker:none;visibility:visible;display:inline;overflow:visible;enable-background:accumulate"
       d="M 44.1875 29.25 C 39.489931 29.271454 35.17301 30.82699 32 34 C 24.89315 41.10685 25.954361 53.949945 34 64 L 62 64 L 64 62 L 64 37.75 C 58.01266 32.161911 50.72736 29.220133 44.1875 29.25 z "
       id="path3790-1-5"
       transform="matrix(0.70710678,-0.70710678,0.70710678,0.70710678,-14.669049,32.585787)" />
    <g
       id="g3908"
       transform="matrix(0,-1,1,0,-2,66.000003)">
      <circle
         r="20"
         cy="34"
         cx="32"
         id="path3790-1"
         style="color:#000000;display:inline;overflow:visible;visibility:visible;fill:#1188f1;fill-opacity:1;fill-rule:nonzero;stroke:none;stroke-width:2.35090041;marker:none;enable-background:accumulate" />
      <path
         transform="matrix(0.52373343,0,0,0.34244106,15.196031,11.987819)"
         d="M 51.530405,32.445362 A 19.445436,19.445436 0 0 1 32.084969,51.890799 19.445436,19.445436 0 0 1 12.639532,32.445362 19.445436,19.445436 0 0 1 32.084969,12.999926 19.445436,19.445436 0 0 1 51.530405,32.445362 Z"
         sodipodi:ry="19.445436"
         sodipodi:rx="19.445436"
         sodipodi:cy="32.445362"
         sodipodi:cx="32.084969"
         id="path3792"
         style="color:#000000;fill:#4dc0ff;fill-opacity:1;fill-rule:nonzero;stroke:none;stroke-width:2.28571415;marker:none;visibility:visible;display:inline;overflow:visible;enable-background:accumulate"
         sodipodi:type="arc" />
      <path
         sodipodi:type="arc"
         style="color:#000000;fill:#f5cd88;fill-opacity:0.21735242;fill-rule:nonzero;stroke:none;stroke-width:2.28571415;marker:none;visibility:visible;display:inline;overflow:visible;enable-background:accumulate"
         id="path3788"
         sodipodi:cx="32.084969"
         sodipodi:cy="32.445362"
         sodipodi:rx="19.445436"
         sodipodi:ry="19.445436"
         d="M 51.530405,32.445362 A 19.445436,19.445436 0 0 1 32.084969,51.890799 19.445436,19.445436 0 0 1 12.639532,32.445362 19.445436,19.445436 0 0 1 32.084969,12.999926 19.445436,19.445436 0 0 1 51.530405,32.445362 Z"
         transform="matrix(0.4585621,0,0,-0.29982905,17.287051,55.797338)" />
    </g>
  </g>
</svg>
